X:56
%%etbk:tnset id:352,pos:1,rep:3x,ant:
%%etbk:wsite http://www.thesession.org/tunes/display/1988
%%etbk:pldat 2016-05-25T17:25,2015-04-08T15:09,2014-05-20T16:32,2014-05-01T18:10,2014-02-12T19:24,2013-12-09T18:50,2013-12-04T18:08,2013-11-27T17:35,2013-11-25T19:40,2013-11-24T15:30,2013-05-22T16:23,2013-05-15T17:13
T: Teampall An Ghleanntain
Z: Piano Box Version by Martin Fleischmann
H: Created 2013-02-19 /  Last Modified 2013-02-19
M: 4/4
L: 1/8
R: reel
K: Dmaj
!5!dcA!2!G !1!E!2!F!4!{A}!2!F!2!F | !4!A!3!G!2!G!3!G !1!E!2!F!4!{A}!2!F!2!F  |1 !5!dcAG !1!E!2!F!4!{A}!2!F!2!F  | !4!A2!3!G!2!E E!1!DD2:|2 !4!A!3!G!2!G!3!G !1!E!2!F!4!{A}!2!F!2!F  | !4!A2!3!G!2!E ED!5!A!1!D ||
|:!2!(3EF!4!G !2!AB !4!=c3B | !2!A!5!d!3!d2 !4!efed | !3!dc!1!A!3!G !1!EF!3!GE |1 !4!A2GE ED!5!AD:|2 !4!A2!3!G!2!E E!1!DD2||


